X: 100289
T: FORGET-ME-NOT HORNPIPE
C: By J. C. Paton, Edinburgh
R: hornpipe, reel
B: K\"ohler's Violin Repository, v.3, 1885 p.213 #1
F: http://www.archive.org/details/klersviolinrepos03rugg
Z: 2012 John Chambers <jc:trillian.mit.edu>
N: The C in bar 1 might be a typo.  The D in bar 5 sounds better.
M: C|
L: 1/8
K: G
u(Bc) |\
(dB)GD (B,C)GB | (cB)AG (FG)Ac | (Bd)gf (ed)cB |
(AG)FG (AB)c^c | (dB)GD (B,D)GB | (cB)AG (FG)Ac | (Bd)gf (ed)^ce |
[1 (dD)FA d2 :|[2 d2d2 d2 |: (ufg) | (ag)fe (fg)ef | decd BcAB | GABc defg |
(fe)de (dc)Bc | (Bg)gg (fg)de | (de)ee (de)cd | (Bc)dB (AB)cA | (3GBc (3def g2 :|

%%sep 2 1 500

